src/assets/icons/MyOrder-Icon.svg

<svg xmlns="http://www.w3.org/2000/svg" xmlns:xlink="http://www.w3.org/1999/xlink" viewBox="0,0,256,256" width="50px" height="50px" fill-rule="nonzero"><g transform="translate(25.6,25.6) scale(0.8,0.8)"><g fill="#000000" fill-rule="nonzero" stroke="none" stroke-width="1" stroke-linecap="butt" stroke-linejoin="miter" stroke-miterlimit="10" stroke-dasharray="" stroke-dashoffset="0" font-family="none" font-weight="none" font-size="none" text-anchor="none" style="mix-blend-mode: normal"><g transform="scale(5.12,5.12)"><path d="M6,2v46h1h37v-46zM8,4h34v42h-34zM13,11v2h24v-2zM13,25v2h4v-2zM20,25v2h17v-2zM13,31v2h4v-2zM20,31v2h17v-2zM13,37v2h4v-2zM20,37v2h17v-2z"></path></g></g></g></svg>

<svg xmlns="http://www.w3.org/2000/svg"  viewBox="0 0 50 50" width="50px" height="50px"><path d="M 6 2 L 6 48 L 7 48 L 44 48 L 44 2 L 6 2 z M 8 4 L 42 4 L 42 46 L 8 46 L 8 4 z M 13 11 L 13 13 L 37 13 L 37 11 L 13 11 z M 13 25 L 13 27 L 17 27 L 17 25 L 13 25 z M 20 25 L 20 27 L 37 27 L 37 25 L 20 25 z M 13 31 L 13 33 L 17 33 L 17 31 L 13 31 z M 20 31 L 20 33 L 37 33 L 37 31 L 20 31 z M 13 37 L 13 39 L 17 39 L 17 37 L 13 37 z M 20 37 L 20 39 L 37 39 L 37 37 L 20 37 z"/></svg>
